X: 1134
T: Molly From Longford
M: 12/8
L: 1/8
R: slide
K: A Dorian
|: B2 A |
G2 E EEE G2 E D2 E | G2 E EDE A^GA B2 A |
G2 E EEE G2 E D2 B | cBA B2 G A3 :|
|: B2 ^A |
Bcd e2 d B2 e e2 d | cBA B2 G A2 G e2 d |
[1 Bcd e2 d B2 e e2 d | cBA BAG A3 :|
[2 g2 e eee g2 e d2 B | cBA BAG A3 |]
